X:5
T:Felix the Soldier
C:Traditional
S:Jeff Davis
K:Ador
M:4/4
L:1/8
BA | GE ED E3 D | A,D D^C D=C CA, | EF GA (3(BcB) AB | GE ED E2 BA |
GE ED E3 D | A,D D^C D=C CA, | EF GA (3(BcB) AB | GE ED E2 d2 |
(3(BcB) Ac BA GE | DA AG AF ED | EF GA (3(BcB) AB | GE ED E2 BA |
GE ED E3 D | A,D D^C D=C CA, | EF GA (3(BcB) AB | GE ED E2 :|
%%textfont Times-Roman 22
%%begintext
Well they took away me brouges and they robbed me of my spade
Put me in the Army and a soldier of me made
But I could not beat the drum and I could not play the flute
They put me in the Army and they taught me how to shoot

Well we had a bloody fight after we had gained the wall
the devil a bit of mercy did the Frenchies show at all
Well the Indians they were sly and the Frenchies they were coy
They shot off the left leg of this poor Irish boy

Then they put me on a ship and they sent me home again
With all the Army's training after battle strife and then
Well we headed for the down and we landed at the keys
Me mother came to see me and these words did say to me
Oh Felix were you drunk, and Felix were you mad
oh what has become of the fine two legs you had

Well I bid my spade adieu, for I could not dig the bog
But I can play my fiddle and I can drink my grog
I've learned to smoke a pipe, and I can fire a gun
To the devil with the fighting I am glad this war is done
%%endtext
%%newpage

